X:16
T:Roslyn Castle
R:air
O:Scottish
Z:id:hn-air-16
M:2/4
L:1/16
Q:1/4=70
K:Em
GF | E2Bc B2AB | cBAG F2GF | E2ef g2fe | defd B2AB |
cBAG F2GA | BGFE d2ef | gefd eBAB | G2F2 E2 :|
|: gf | e2ef g2fg | baga f2gf | eBef g2fg | baga f2AB |
cBAG F2GA | BGFE d2ef | gefd eBAB | G2F2 E2 :|

